frontend/public/assets/material-icons/folder-client-open.svg

<svg xmlns="http://www.w3.org/2000/svg" viewBox="0 0 32 32">
  <path d="M28.96692,12H9.44152a2,2,0,0,0-1.89737,1.36754L4,24V10H28a2,2,0,0,0-2-2H15.1241a2,2,0,0,1-1.28038-.46357L12.5563,6.46357A2,2,0,0,0,11.27592,6H4A2,2,0,0,0,2,8V24a2,2,0,0,0,2,2H26l4.80523-11.21213A2,2,0,0,0,28.96692,12Z" style="fill: #039be5"/>
  <g>
    <path d="M14.99963,11.99963a1,1,0,0,0-.99963,1V23.99377H10v4H22v-4H16V14H30V11.99377Z" style="fill: #b3e5fc;fill-rule: evenodd"/>
    <path d="M31,16H25a1,1,0,0,0-1,1V27a1,1,0,0,0,1,1h6a1,1,0,0,0,1-1V17A1,1,0,0,0,31,16Zm-1,8H26V18h4Z" style="fill: #b3e5fc;fill-rule: evenodd"/>
  </g>
</svg>

<svg xmlns="http://www.w3.org/2000/svg" viewBox="0 0 32 32"><path fill="#039be5" d="M28.967 12H9.442a2 2 0 0 0-1.898 1.368L4 24V10h24a2 2 0 0 0-2-2H15.124a2 2 0 0 1-1.28-.464l-1.288-1.072A2 2 0 0 0 11.276 6H4a2 2 0 0 0-2 2v16a2 2 0 0 0 2 2h22l4.805-11.212A2 2 0 0 0 28.967 12"/><path fill="#b3e5fc" d="M15 12a1 1 0 0 0-1 1v10.994h-4v4h12v-4h-6V14h14v-2.006Z"/><path fill="#b3e5fc" d="M31 16h-6a1 1 0 0 0-1 1v10a1 1 0 0 0 1 1h6a1 1 0 0 0 1-1V17a1 1 0 0 0-1-1m-1 8h-4v-6h4Z"/></svg>
